X: 601
M: 9/8
L: 1/8
K: D
V: 1
(AG/F/E/D/) (D>FE/D/) A,2B | (AG/F/E/D/) (D>FE/D/) G2B |\
(AG/F/E/D/) (D>FE/D/) A,2e | efe E2F G2 :|
|: g |\
fef def ABd | efe E2F G2 :|
V: 2 clef=bass middle=d
z |\
d3 D3 A3 | d3 f3 g3 |\
d3 D3 A3 | A3 A3 G2 :|\
|: z |
d3 d3 d3 | d3 d3 d3 |\
d3 d3 d3 | A3 A3 G2 :|

